img/icon-service-wom.svg

<?xml version="1.0" encoding="UTF-8"?>
<svg width="100px" height="61px" viewBox="0 0 100 61" version="1.1" xmlns="http://www.w3.org/2000/svg" xmlns:xlink="http://www.w3.org/1999/xlink">
    <!-- Generator: Sketch 44.1 (41455) - http://www.bohemiancoding.com/sketch -->
    <title>Shape</title>
    <desc>Created with Sketch.</desc>
    <defs></defs>
    <g id="Page-1" stroke="none" stroke-width="1" fill="none" fill-rule="evenodd">
        <path d="M99.7415358,37.7954308 C100.072789,37.1398255 100.10902,36.3738025 99.8433271,35.6888675 L99.1204361,33.816942 C93.5840221,19.441934 83.306547,-7.18944196 50.0190524,2.62738422 C16.7281072,-7.19979362 6.45408262,19.4402087 0.919393972,33.816942 L0.196502905,35.6888675 C-0.070915031,36.3720772 -0.0346842139,37.1398255 0.298294249,37.7954308 C0.774470703,38.7391573 12.3838597,60.8779119 50.0207777,60.8779119 C87.6576956,60.8779119 99.2653593,38.7391573 99.7415358,37.7954308 Z M49.2547547,7.78941303 C49.2582052,7.79113831 49.263381,7.79113831 49.2668316,7.79113831 C49.7447333,7.93606158 50.2692175,7.94641324 50.7816248,7.78941303 C78.629321,-0.821444522 87.7353331,18.8656914 93.4304725,33.4667108 C93.0629885,33.3442161 92.5178009,33.1682378 91.8121626,32.9474024 C91.6534372,32.8559627 91.4860853,32.7766 91.3049312,32.7179405 C90.811502,32.5574898 90.36293,32.4246434 89.8867535,32.2762696 C89.6365883,32.0968408 89.3536429,31.9570934 89.0396425,31.8742801 L88.3357295,31.6896754 C88.3340042,31.6896754 88.3322789,31.6896754 88.3305536,31.6896754 C88.3305536,31.6896754 88.3288284,31.6896754 88.3288284,31.6896754 C76.1293946,28.5134405 69.4059901,26.3965256 64.9547754,24.9938754 C58.5022394,22.961499 56.5544017,22.3490257 50.0173271,22.3490257 C43.6683077,22.3490257 42.106932,22.8459055 36.2944738,24.6919519 C32.3211608,25.9548547 26.5242301,27.7957252 15.8206115,30.6165531 C15.6101277,30.671762 15.4082703,30.7235203 15.1943359,30.7804545 C14.0815323,31.0720263 12.9342231,31.3722245 11.7144522,31.6844996 C11.7110017,31.6862249 11.7058258,31.6879502 11.7023753,31.6896754 C11.7023753,31.6896754 11.6989247,31.6896754 11.6989247,31.6896754 L10.9950117,31.8742801 C10.6844618,31.9553681 10.4032417,32.0951155 10.1548018,32.2728191 C9.67517479,32.4229182 9.22142694,32.5574898 8.72627244,32.7196658 C8.54511835,32.7783252 8.37604121,32.857688 8.219041,32.9508529 C7.51685326,33.1716884 6.97166572,33.3476666 6.60590699,33.4701613 C12.3027717,18.8639662 21.4053332,-0.819719245 49.2547547,7.78941303 Z M50.0190524,55.7020809 C23.8258968,55.7020809 11.5798806,44.3670109 7.07000651,38.6528934 C7.29946835,38.6390912 7.53065547,38.6149374 7.75839204,38.5372999 C7.88606254,38.494168 15.4979847,35.9079777 25.8582731,33.7841617 C32.4177763,32.8939188 36.0788141,33.7634584 39.870973,34.6657783 C42.77979,35.3558891 45.7886731,36.071879 50.0190524,36.071879 C54.2632338,36.071879 57.2410619,35.3438121 60.1205493,34.6381738 C63.8333454,33.7306781 67.4201963,32.857688 73.9469192,33.7341287 C84.4262518,35.8648458 92.1485917,38.4907174 92.2779874,38.5338493 C92.505724,38.6114868 92.7369111,38.6356407 92.966373,38.6494429 C88.451323,44.3721867 76.2070321,55.7020809 50.0190524,55.7020809 Z" id="Shape" fill="#3F51B5" fill-rule="nonzero"></path>
    </g>
</svg>

<svg width="100" height="61" viewBox="0 0 100 61" xmlns="http://www.w3.org/2000/svg">
    <path d="M99.742 37.795c.331-.656.367-1.422.102-2.107l-.723-1.872c-5.536-14.375-15.814-41.006-49.101-31.19-33.291-9.827-43.565 16.813-49.1 31.19l-.723 1.872c-.267.683-.231 1.451.102 2.107.476.944 12.086 23.082 49.722 23.082 37.637 0 49.245-22.139 49.721-23.082zm-50.487-30.006l.012.002c.478.145 1.002.155 1.515-.002 27.848-8.611 36.954 11.076 42.649 25.677-.367-.122-.913-.298-1.618-.519-.159-.091-.326-.171-.507-.229-.493-.16-.942-.293-1.418-.442-.25-.179-.533-.319-.847-.402l-.704-.185h-.007c-12.199-3.176-18.923-5.293-23.374-6.696-6.453-2.032-8.4-2.645-14.937-2.645-6.349 0-7.91.497-13.723 2.343-3.973 1.263-9.77 3.104-20.474 5.925l-.626.164c-1.113.292-2.26.592-3.48.904l-.012.005h-.003l-.704.185c-.311.081-.592.221-.84.399-.48.15-.933.285-1.429.447-.181.059-.35.138-.507.231-.702.221-1.247.397-1.613.519 5.697-14.606 14.799-34.29 42.649-25.681zm.764 47.913c-26.193 0-38.439-11.335-42.949-17.049.229-.014.461-.038.688-.116.128-.043 7.74-2.629 18.1-4.753 6.56-.89 10.221-.021 14.013.882 2.909.69 5.918 1.406 10.148 1.406 4.244 0 7.222-.728 10.101-1.434 3.713-.907 7.3-1.78 13.826-.904 10.479 2.131 18.202 4.757 18.331 4.8.228.078.459.102.688.116-4.515 5.723-16.759 17.053-42.947 17.053z"
          fill="#F44336"/>
</svg>
